X:1
T:Title
%%score { ( 1 4 ) | ( 2 3 ) }
L:1/8
M:4/4
K:Eb
V:1 treble nm="Grand Piano"
V:4 treble 
V:2 bass 
V:3 bass 
V:1
 z4 z2[Q:1/4=100] [GB]2 | [Ge]2 [Bd][Ac] [GB]2 [Ac][Ac] | [Ac]4 [GB]2 [EG]2 | %3
 [DA]2 [DA][EG] [DF]2 [DB]A | G6 B2 | c2 cc B2 e[B,EB] | [E_d]2 [Ec]4 [Ec]2 | %7
 [EB]2 [DB][DA] [EG]2 [A,DF][B,DG] |[M:3/4] [G,E]6 |[M:1/4] [B,GB]2 | %10
[M:4/4] [Ge]2 [Bd][Ac] [GB]3 B | c2 cc c3 d | e2 BB cBAG | [DF]6 [FA]2 | %14
[M:9/8] [EG]2 [EG] [FG] [Ec]2- [Ec]cB | A2 =A A [DB]2- [DB] [F_A]2 | %16
[M:4/4] [EG]2 [Dc][DB] [DA]2 [EG][DF] |[M:3/4] E6 |] %18
V:2
 z4 z2 [E,E]2 | [E,E]2 [E,E][E,E] [E,E]2 [E,E][E,E] | [E,E]4 [E,E]2 [E,B,]2 | %3
 [B,,B,]2 [B,,B,][B,,B,] [B,,B,]2 [B,,B,][B,,B,] | [E,B,E]6 [G,B,E]2 | %5
 [A,E]2 [A,E][A,E] [G,B,E]2 [G,,B,E]G,, | [A,,B,]2 [A,,A,]4 [A,,A,]2 | %7
 [B,,G,]2 [B,,F,][B,,B,] [B,,B,]2 B,,B,, |[M:3/4] E,6 |[M:1/4] E,2 | %10
[M:4/4] [E,B,]2 [E,E][E,E] [E,E]3[K:treble] [G,B,E] | [A,E]2 [A,E][A,E] [A,E]3 [A,B,F] | %12
 z4 E2 .[F,D]2 | [B,,B,]6 [D,B,]2 |[M:9/8] [E,B,]2 [E,B,] [D,=B,] [C,C]2- [C,C] [C,C]2 | %15
 [F,CF]2 [F,CE] [F,CE] [B,,B,]2- [B,,B,] [D,B,]2 | %16
[M:4/4] [E,B,]2 [B,,A,][B,,G,] [B,,F,]2 [B,,B,][B,,A,] |[M:3/4] [E,G,]6 |] %18
V:3
 x8 | x8 | x8 | x8 | x8 | x8 | x8 | x8 |[M:3/4] x6 |[M:1/4] x2 |[M:4/4] x7[K:treble] x | x8 | %12
 [G,B,E]2 [G,B,E][G,B,E] A,[G,B,]B,-[E,B,E] | x8 |[M:9/8] x9 | x9 |[M:4/4] x8 |[M:3/4] x6 |] %18
V:4
 x8 | x8 | x8 | x8 | x8 | x8 | x8 | x8 |[M:3/4] x6 |[M:1/4] x2 |[M:4/4] x8 | x8 | x8 | x8 | %14
[M:9/8] z3 z3 z E2 | x9 |[M:4/4] x8 |[M:3/4] x6 |] %18

